images/arrow.svg

<svg width="38" height="38" viewBox="0 0 38 38" fill="none" xmlns="http://www.w3.org/2000/svg">
<g filter="url(#filter0_d_15_640)">
<circle cx="19" cy="16" r="15" transform="rotate(-180 19 16)" fill="white"/>
<circle cx="19" cy="16" r="14.5" transform="rotate(-180 19 16)" stroke="#005CFF"/>
</g>
<path d="M18.4665 21L19.8946 19.5814L16.7967 16.4835L25 16.4835L25 14.4811L16.7967 14.4811L19.8946 11.3831L18.4665 9.9646L12.9614 15.4823L18.4665 21Z" fill="#005CFF"/>
<defs>
<filter id="filter0_d_15_640" x="0" y="0" width="38" height="38" filterUnits="userSpaceOnUse" color-interpolation-filters="sRGB">
<feFlood flood-opacity="0" result="BackgroundImageFix"/>
<feColorMatrix in="SourceAlpha" type="matrix" values="0 0 0 0 0 0 0 0 0 0 0 0 0 0 0 0 0 0 127 0" result="hardAlpha"/>
<feOffset dy="3"/>
<feGaussianBlur stdDeviation="2"/>
<feComposite in2="hardAlpha" operator="out"/>
<feColorMatrix type="matrix" values="0 0 0 0 0 0 0 0 0 0 0 0 0 0 0 0 0 0 0.25 0"/>
<feBlend mode="normal" in2="BackgroundImageFix" result="effect1_dropShadow_15_640"/>
<feBlend mode="normal" in="SourceGraphic" in2="effect1_dropShadow_15_640" result="shape"/>
</filter>
</defs>
</svg>

<svg version="1.2" xmlns="http://www.w3.org/2000/svg" viewBox="0 0 38 38" width="38" height="38"><style>.a{fill:#fff}.b{fill:#fff;stroke:#005cff}.c{fill:#3cd3ff}</style><path fill-rule="evenodd" class="a" d="m19 1c8.3 0 15 6.7 15 15 0 8.3-6.7 15-15 15-8.3 0-15-6.7-15-15 0-8.3 6.7-15 15-15z"/><path fill-rule="evenodd" class="b" d="m19 1.5c8 0 14.5 6.5 14.5 14.5 0 8-6.5 14.5-14.5 14.5-8 0-14.5-6.5-14.5-14.5 0-8 6.5-14.5 14.5-14.5z"/><path class="c" d="m18.5 21l1.4-1.4-3.1-3.1h8.2v-2h-8.2l3.1-3.1-1.4-1.4-5.5 5.5z"/></svg>
